!!!COM: Bach, Johann Sebastian
!!!OPR: Joh. Seb. Bachs vierstimmige Choralgesänge
!!!XEN: Four-part Chorales
!!!OTL: Chorale 139. Nun ruhen alle Wälder
!!!SCT: BWV 392
!!!SCA: Thematisch-systematisches Verzeichnis der musikalischen Werke Johann Sebastian Bach: Bach-Werke-Verzeichnis (Schmieder)
!!!YOR: Bach Gesellschaft Edition xxxix
!!!ENC: Steven Rasmussen
!!!CDT: 1685/3//-1750/7/28/
!!!OCY: Deutschland
!!!YEC: Copyright (c) 1994, 2000 Center for Computer Assisted Research in the Humanities
!!!YEM: Rights to all derivative editions reserved
!!!YEN: United States of America
**kern	**kern	**kern	**kern	**silbe
*I:[BASSO]	*I:[TENORE]	*I:[ALTO]	*I:[SOPRANO]	*I:[SOPRANO]
*clefF4	*clefGv2	*clefG2	*clefG2	*
*k[b-e-]	*k[b-e-]	*k[b-e-]	*k[b-e-]	*
*B-:	*B-:	*B-:	*B-:	*
*M4/4	*M4/4	*M4/4	*M4/4	*
4BB-	4f	4b-	4dd	Nun
=1	=1	=1	=1	=1
4E-	4e-	4g	4b-	ru-
8DL	4e-	4a	4cc	-hen
8CJ	.	.	.	.
4BB-	4f	4b-	8ddL	al-
.	.	.	8ee-J	.
4D	4f	4b-	4ff	-le
=2	=2	=2	=2	=2
4C	4g	4b-	2ee-	Wäl-
4F	4f	4a	.	.
4BB-;	4f;	4b-;	4dd;	-der,
4B-	8B-L	4f	8ddL	Vieh,
.	8cJ	.	8ee-J	.
=3	=3	=3	=3	=3
8BB-L	8dL	4b-	4ff	Men-
8CJ	8e-J	.	.	.
8DL	4f	4b-	4ff	-schen,
8E-J	.	.	.	.
4F	4f	8b-L	4cc	Städt'
.	.	8aJ	.	.
4D	8fL	4a	8ddL	und
.	8e-J	.	8ccJ	.
=4	=4	=4	=4	=4
8GL	4d	2g	2b-	Fel-
8F	.	.	.	.
8En	4c	.	.	.
8CJ	.	.	.	.
4F;	4c;	4f;	4a;	-der,
8FL	4A	4c	4f	es
8E-J	.	.	.	.
=5	=5	=5	=5	=5
4D	8B-L	4f	4b-	schläft
.	8dJ	.	.	.
4C	4e-	8gL	4cc	die
.	.	8aJ	.	.
4BB-	8fL	4b-	8ddL	gan-
.	8dJ	.	16ee-L	.
.	.	.	16ffJJ	.
4E-	4B-	4b-	8ee-L	-ze
.	.	.	8ddJ	.
=6	=6	=6	=6	=6
2.F;	2.A;	2.f;	2.cc;	Welt'
4F#	4d	4a	4dd	ihr
=7	=7	=7	=7	=7
4G	8dL	8aL	4b-	a-
.	8e-J	8gJ	.	.
4A	8e-L	8gL	4cc	-ber,
.	8fJ	8fJ	.	.
4B-	4d	8fL	8ddL	mei-
.	.	8gJ	8ee-J	.
4Bn	4d	8a-L	4ff	-ne
.	.	8gJ	.	.
=8	=8	=8	=8	=8
4c	4G	4g	2ee-	Sin-
4C	4A	4f#	.	.
4G;	4Bn;	4g;	4dd;	-nen,
4G	4g	4b-	8ddL	auf,
.	.	.	8ee-J	.
=9	=9	=9	=9	=9
8AL	8fL	8ccL	4ff	auf!
8FJ	8e-J	8aJ	.	.
4B-	4d	4b-	4ff	ihr
8B-L	8enL	8gL	4cc	sollt
8AJ	8fJ	8fJ	.	.
8GL	4f	4a	4dd	be-
8FJ	.	.	.	.
=10	=10	=10	=10	=10
4G	4f	4a	2b-	-gin-
4C	4en	4g	.	.
4F;	4c;	4f;	4a;	-nen,
8FL	4A	4c	4f	was
8E-J	.	.	.	.
=11	=11	=11	=11	=11
4D	4.B-	4f	4b-	eu-
4C	.	4e-	4cc	-rem
.	8A	.	.	.
4BB-	4B-	4f	4dd	Schö-
4E-	4B-	4g	8ccL	-pfer
.	.	.	16ddL	.
.	.	.	16ee-JJ	.
=12	=12	=12	=12	=12
4F	4B-	4f	4dd	wohl-
4FF	8AL	4f	4cc	-ge-
.	8e-J	.	.	.
4BB-;	4d;	4f;	4b-;	-fällt.
==|!	==|!	==|!	==|!	==|!
*-	*-	*-	*-	*-
!!!RWG: Key is interpreted using the Humdrum key tool.
!!!URL-pdf: https://s9.imslp.org/files/imglnks/usimg/6/6b/IMSLP24489-PMLP09471-CCARH_Bach_Chorales.pdf#page=98 Musedata edition
!!!URL-pdf: https://s9.imslp.org/files/imglnks/usimg/7/7a/IMSLP04155-Bach_-_BGA_253-438.pdf#page=77 	Bach-Gesellschaft Ausgabe, Band 39 (pp.175-276) Leipzig: Breitkopf und Härtel, 1892. Plate B.W. XXXIX.
!!!END: 1994/07/19
!!!EMD: Converted from MuseData to Humdrum Dec 19, 2000, by Andreas Kornstaedt using muse2kern.
!!!EED: Craig Stuart Sapp
!!!EEV: 2024/03/31
!!!filter-keyboard: satb2gs
!!!title: @{OTL} (@{SCT})
